X: 1
T: God Rest Ye Merry Gentlemen
C: Words: Traditional English.  Music: 'God Rest Ye Merry Gentlemen' Traditional English.  Setting: Carols Old And Carols New, 1918.
C: copyright: public domain.  This score is a part of the Open Hymnal Project, 2006 Revision.
S: Music source: 'Carols Old And Carols New', 1918 carol 722.
M: 4/4 % time signature
L: 1/4 % default length
%%staves (S1V1 S1V2) | (S2V1 S2V2) 
V: S1V1 clef=treble 
V: S1V2 
V: S2V1 clef=bass 
V: S2V2 
K: G % key signature
%
%%MIDI program 1 0 % Piano 1
%%MIDI program 2 0 % Piano 1
%%MIDI program 3 0 % Piano 1
%%MIDI program 4 0 % Piano 1
%
% 1
[V: S1V1] [Q:1/4=160] E | E B B A | G F E D | E F G A | B3
w: 1.~God rest ye mer- ry, gen- tle- men, let no- thing you dis- may, 
w: 2.~In Beth- le- hem, in Is- ra- el, this bless- èd Babe was born, 
w: 3.~From God our heav'n- ly Fa- * ther a bless- èd an- gel came; 
w: 4.~"Fear not, then," said the an- * gel, "Let no- thing you a- fright 
w: 5.~The shep- herds at those ti- * dings re- jo- iced much in mind, 
[V: S1V2]  E | E G F ^D | E =D C B, | E ^D E E | ^D3
[V: S2V1]  E, | G, E, F, B, | B, B, G, G, | G, B, B, E, | F,3
[V: S2V2]  E, | E, E, ^D, B,, | E, B,, C, G,, | C, B,, E, C, | B,,3
% 5
[V: S1V1]  E | E B B A | (G F) E D | E F G A | B2 z
w: Re- mem- ber Christ our Sa- * vior was born on Christ- mas Day; 
w: And laid with- in a man- * ger up- on this bless- èd morn; 
w: And un- to cer- tain shep- * herds brought ti- dings of the same; 
w: This day is born a Sa- * vior of a pure Vir- gin bright, 
w: And left their flocks a- feed- * ing in tem- pest, storm and wind, 
[V: S1V2]  E | E G F ^D | (E =D) C B, | E ^D E E | ^D2 z
[V: S2V1]  E, | G, E, F, B, | (B, B,) G, G, | G, B, B, E, | F,2 z
[V: S2V2]  E, | E, E, ^D, B,, | (E, B,,) C, G,, | C, B,, E, C, | B,,2 z
% 9
[V: S1V1]  B | c A B c | d e B A | G E F G | A2
w: To save us all from Sa- tan's pow'r when we were gone a- stray. 
w: The which His mo- ther Ma- * ry did no- thing take in scorn. 
w: How that in Beth- le- hem was born the Son of God by name. 
w: To free all those who trust in Him from Sa- tan's pow'r and might." 
w: And went to Beth- l?em straight- aw- ay this bless- èd Babe to find. 
[V: S1V2]  E | E D D G | =F E D ^D | E ^C D G | F2
[V: S2V1]  ^G, | A, A, G, G, | G, G, G, F, | G, G, A, D | (D C)
[V: S2V2]  E, | A, F, G, E, | B,, C, G,, B,, | E, E, D, B,, | D,2
% 13
[V: S1V1]  (G A) | B2 c B | (B A) G F | E2 G/F/ E | A2 (G A) | (B c) d e | (B A) G F | E3 |]
w: O * ti- dings of com- * fort and joy, com- fort and joy; O * ti- * dings of com- * fort and joy. 
[V: S1V2]  (G D) | D2 E D | (G F) E ^D | E2 B,/B,/ ^C | D2 (E F) | G2 G G | (G F) E ^D | E3 |]
[V: S2V1]  (B, A,) | G,2 G, G, | (D C) B, B, | G,2 G,/G,/ G, | (F, A,) (D C) | (B, G,) D C | (D C) B, B, | G,3 |]
[V: S2V2]  (E, F,) | G,2 C, G, | (G,, A,,) B,, B,, | E,2 E,/E,/ E, | (D, C,) (B,, A,,) | (G,, E,) B,, C, | (G,, A,,) B,, B,, | E,3 |]
% 22
W: 6.But when to Bethlehem they came where our dear Savior lay,
W: They found Him in a manger where oxen feed on hay;
W: His mother Mary kneeling unto the Lord did pray.
W:
W: 7.Now to the Lord sing praises all you within this place,
W: And with true love and brotherhood each other now embrace;
W: This holy tide of Christmas all others doth deface.
W: 
W: 8.God bless the ruler of this house, and send him long to reign,
W: And many a merry Christmas may live to see again;
W: Among your friends and kindred that live both far and near
W: That God send you a happy new year, happy new year,
W: And God send you a happy new year.
